!!!OTL: Gaosheng gechang gongchandang
!!!ARE: Asia, China,ÿJiangsu Suqian
!! III, 426
!!!SCT: C1777
!!!YEM: Copyright 1995, estate of Helmut Schaffrath.
**kern
*ICvox
*Ivox
*M2/4
*k[b-]
*F:
{8ff
8ff
8gg
8dd
=1
2cc}
=2
{8ff
8ff
16dd
16cc
16cc
16a
=3
2g}
=4
{8ff
8ff
8gg
8ff
=5
8dd
8dd
4cc}
=6
{8f
8a
16g
16f
8d
=7
2c}
=8
{8cc
16cc
16dd
4f
=9
8g
4cc
16cc
16a
=10
8g
16cc
16a
16g
16a
16g
16f
=11
16f
16g
4.d}
=12
{8ff
8ff
8gg
8ff
=13
8ff
8dd
4cc}
=14
{8ff
8ff
16a
16cc
16dd
16ff
=15
8cc
16cc
16a
16g
16f
8d
=16
2c}
=17
{8f
8f
4g
=18
8cc
16cc
16a
4g}
=19
{8ff
8ff
8gg
8ff
=20
8ff
8dd
4cc}
=21
{8ff
8ff
16a
16cc
16dd
16ff
=22
8cc
16cc
16a
16g
16f
8d
=23
2c}
==
!!!AGN: Xiaodiao, Huaihong diao
!!!AMT: simple duple
!!!AIN: vox
!!!EED: Helmut Schaffrath
!!!EEV: 1.0
*-
